X:255
T:Mary Do It Again
M:6/8
L:1/8
R:jig
D:Bonnie Rideout: Celtic Circles
Z:Suzi Schroeder
Z:Michael Abraham Shulman
N:Set is ~ - Cross Roads - Jig in A
N:Suzi
K:D
|:c2A Bcd|ecA A2B|=cBA d2c|B2G G2B|
c2A Bcd|ecA A2c|efe d2e|1 c2A A2e:|2 c2A Aef|
|:g3 gfe|d3 c2d|e2a a2^g|a3 aef|
g3 gfe|d3 c2d|efe d2e|c2A Aef:|
|:gfe agf|bag agf|gfe agf|gfe dcB:|
